third_party/noto/noto_2/emoji_u1f69f.svg

<svg enable-background="new 0 0 128 128" version="1.1" viewBox="0 0 128 128" xmlns="http://www.w3.org/2000/svg"><line x1="31.74" x2="6.38" y1="41.78" y2="9.53" fill="none" stroke="#26A69A" stroke-miterlimit="10" stroke-width="5"/><polygon points="15.92 17.62 12.02 20.72 8.87 16.72 8.87 15.89 14.61 15.91" fill="#00796B"/><rect x="4" y="9.53" width="5" height="32.83" fill="#26A69A"/><line x1="38.56" x2="63.92" y1="41.78" y2="9.53" fill="none" stroke="#26A69A" stroke-miterlimit="10" stroke-width="5"/><line x1="89.27" x2="63.92" y1="41.78" y2="9.53" fill="none" stroke="#26A69A" stroke-miterlimit="10" stroke-width="5"/><polygon points="73.47 17.66 69.57 20.76 66.41 16.74 61.42 16.74 58.44 20.54 54.12 17.95 57.89 13.14 69.98 13.14" fill="#00796B"/><line x1="63.92" x2="63.92" y1="9.53" y2="42.36" fill="none" stroke="#26A69A" stroke-miterlimit="10" stroke-width="5"/><line x1="96.1" x2="121.45" y1="41.78" y2="9.53" fill="none" stroke="#26A69A" stroke-miterlimit="10" stroke-width="5"/><polygon points="119 16.69 116.09 20.38 111.79 17.78 113.28 15.89 119.29 15.91" fill="#00796B"/><rect x="119" y="9.53" width="5" height="32.83" fill="#26A69A"/><rect x="4" y="39.21" width="120" height="9.24" fill="#80CBC4"/><rect x="4" y="3.92" width="120" height="12.11" fill="#26A69A"/><rect x="4" y="6.55" width="120" height="2.03" fill="#00796B"/><rect x="4" y="41.12" width="120" height="12.11" fill="#26A69A"/><rect x="4" y="43.75" width="120" height="2.03" fill="#00796B"/><polygon points="34.6 43.83 34.6 40 29.4 40 29.4 53.23 31.81 53.23 34.6 53.23 35.81 53.23 35.81 43.83" fill="#00796B"/><polygon points="106 44.76 106 40 100.8 40 100.8 53.23 103.21 53.23 106 53.23 107.2 53.23 107.2 44.76" fill="#00796B"/><circle cx="18.57" cy="33.09" r="8.61" fill="#455A64"/><circle cx="38.01" cy="33.09" r="8.61" fill="#455A64"/><circle cx="18.57" cy="33.09" r="6.09" fill="#607D8B"/><circle cx="38.01" cy="33.09" r="6.09" fill="#607D8B"/><path d="m32 28.25h-7.07c-3.68 0-8.01 1.83-8.01 4.84 0 0.99 0.73 1.79 1.63 1.79s1.63-0.8 1.63-1.79c0-0.11-0.01-0.22-0.03-0.33 3.05-0.34 3.61 1.86 3.61 3.73v26.34h9.14v-26.34c0-1.87 0.82-4.48 3.86-3.73-0.02 0.11-0.03 0.21-0.03 0.33 0 0.99 0.73 1.79 1.63 1.79s1.63-0.8 1.63-1.79c0.02-3.01-4.3-4.84-7.99-4.84z" fill="#82AEC0"/><path d="m20.17 32.76s2.07-1.1 3.68-0.48c1.6 0.63 1.88 1.79 1.88 3.95v22.49h-2s0.02-20.5 0.02-22.92c0-2.96-3.58-3.04-3.58-3.04z" fill="#C9E3E6"/><path d="m36.79 32.76s-2.07-1.1-3.68-0.48-1.88 1.79-1.88 3.95v22.49h2s-0.02-20.5-0.02-22.92c0-2.96 3.58-3.04 3.58-3.04z" fill="#455A64"/><path d="m115 64.97-102 0.45 1.35-2.15c1.77-2.83 4.86-4.54 8.18-4.54h83.05c3.1 0 6.01 1.5 7.83 4.03l1.59 2.21z" fill="#82AEC0"/><circle cx="89.47" cy="33.09" r="8.61" fill="#455A64"/><circle cx="108.92" cy="33.09" r="8.61" fill="#455A64"/><circle cx="89.47" cy="33.09" r="6.09" fill="#607D8B"/><circle cx="108.92" cy="33.09" r="6.09" fill="#607D8B"/><path d="m102.91 28.25h-7.07c-3.68 0-8.01 1.83-8.01 4.84 0 0.99 0.73 1.79 1.63 1.79s1.63-0.8 1.63-1.79c0-0.11-0.01-0.22-0.03-0.33 3.05-0.34 3.61 1.86 3.61 3.73v26.34h9.14v-26.34c0-1.87 0.82-4.48 3.86-3.73-0.02 0.11-0.03 0.21-0.03 0.33 0 0.99 0.73 1.79 1.63 1.79s1.63-0.8 1.63-1.79c0.02-3.01-4.31-4.84-7.99-4.84z" fill="#82AEC0"/><path d="m91.07 32.76s2.07-1.1 3.68-0.48c1.6 0.63 1.88 1.79 1.88 3.95v22.49h-2s0.02-20.5 0.02-22.92c0-2.96-3.58-3.04-3.58-3.04z" fill="#C9E3E6"/><path d="m107.69 32.76s-2.07-1.1-3.68-0.48c-1.6 0.63-1.88 1.79-1.88 3.95v22.49h2s-0.02-20.5-0.02-22.92c0-2.96 3.58-3.04 3.58-3.04z" fill="#455A64"/><path d="M124,118.8H4V71.95c0-2.73,2.21-4.94,4.94-4.94h110.11c2.73,0,4.94,2.21,4.94,4.94V118.8z" fill="#FFCA28"/><path d="m118.38 67.33h-107.38c-1.05 0-1.91-0.85-1.91-1.91 0-1.05 0.85-1.91 1.91-1.91h107.38c1.05 0 1.91 0.85 1.91 1.91 0 1.05-0.86 1.91-1.91 1.91z" fill="#78909C"/><rect x="4.04" y="109.36" width="119.85" height="3.3" fill="#FFF59D"/><path d="m113.21 122.2h-101.45c-6.8 0-7.77-3.41-7.77-3.41h119.96c0.01 0-0.06 3.41-10.74 3.41z" fill="#9E740B"/><path d="m119.94 65.97h-112.37c-1.97 0-3.57 1.6-3.57 3.57v17.15h120v-16.66c0-2.24-1.82-4.06-4.06-4.06z" fill="#E2A610"/><path d="m94.64 119.85h-14.74c-2.09 0-3.79-1.69-3.79-3.79v-39.15c0-2.36 1.91-4.27 4.27-4.27h14.26c1.9 0 3.45 1.54 3.45 3.45v40.31c0 1.91-1.55 3.45-3.45 3.45z" fill="#FFCA28" stroke="#9E740B" stroke-miterlimit="10" stroke-width="2"/><path d="m92.54 75.9h-10.88c-1.47 0-2.66 1.19-2.66 2.66v21.93c0 1.47 1.19 2.66 2.66 2.66h10.88c1.47 0 2.66-1.19 2.66-2.66v-21.93c-0.01-1.47-1.2-2.66-2.66-2.66z" fill="#37474F"/><path d="m91.67 78.44h-8.86c-1.1 0-2 0.9-2 2v18.1c0 1.1 0.9 2 2 2h8.86c1.1 0 2-0.9 2-2v-18.1c0-1.1-0.89-2-2-2z" fill="#BAE2FD"/><path d="m117.72 75.9h-12.88c-1.47 0-2.66 1.19-2.66 2.66v14.93c0 1.47 1.19 2.66 2.66 2.66h12.88c1.47 0 2.66-1.19 2.66-2.66v-14.93c0-1.47-1.19-2.66-2.66-2.66z" fill="#37474F"/><path d="m116.86 78.44h-10.86c-1.1 0-2 0.9-2 2v11.1c0 1.1 0.9 2 2 2h10.86c1.1 0 2-0.9 2-2v-11.1c0-1.1-0.9-2-2-2z" fill="#BAE2FD"/><path d="m70.04 75.9h-12.87c-1.47 0-2.66 1.19-2.66 2.66v14.93c0 1.47 1.19 2.66 2.66 2.66h12.88c1.47 0 2.66-1.19 2.66-2.66v-14.93c-0.01-1.47-1.2-2.66-2.67-2.66z" fill="#37474F"/><path d="m69.18 78.44h-10.86c-1.1 0-2 0.9-2 2v11.1c0 1.1 0.9 2 2 2h10.86c1.1 0 2-0.9 2-2v-11.1c0-1.1-0.89-2-2-2z" fill="#BAE2FD"/><path d="m46.21 75.9h-12.88c-1.47 0-2.66 1.19-2.66 2.66v14.93c0 1.47 1.19 2.66 2.66 2.66h12.88c1.47 0 2.66-1.19 2.66-2.66v-14.93c-0.01-1.47-1.2-2.66-2.66-2.66z" fill="#37474F"/><path d="m45.34 78.44h-10.86c-1.1 0-2 0.9-2 2v11.1c0 1.1 0.9 2 2 2h10.86c1.1 0 2-0.9 2-2v-11.1c0-1.1-0.89-2-2-2z" fill="#BAE2FD"/><path d="m22.37 75.9h-12.88c-1.47 0-2.66 1.19-2.66 2.66v14.93c0 1.47 1.19 2.66 2.66 2.66h12.88c1.47 0 2.66-1.19 2.66-2.66v-14.93c-0.01-1.47-1.2-2.66-2.66-2.66z" fill="#37474F"/><path d="m21.5 78.44h-10.85c-1.1 0-2 0.9-2 2v11.1c0 1.1 0.9 2 2 2h10.85c1.1 0 2-0.9 2-2v-11.1c0-1.1-0.89-2-2-2z" fill="#BAE2FD"/></svg>

<?xml version="1.0" encoding="utf-8"?>
<!-- Generator: Adobe Illustrator 25.2.3, SVG Export Plug-In . SVG Version: 6.00 Build 0)  -->
<svg version="1.1" id="Layer_2" xmlns="http://www.w3.org/2000/svg" xmlns:xlink="http://www.w3.org/1999/xlink" x="0px" y="0px"
	 viewBox="0 0 128 128" style="enable-background:new 0 0 128 128;" xml:space="preserve">
<g>
	<line style="fill:none;stroke:#26A69A;stroke-width:5;stroke-miterlimit:10;" x1="31.74" y1="41.78" x2="6.38" y2="9.53"/>
	<polygon style="fill:#00796B;" points="15.92,17.62 12.02,20.72 8.87,16.72 8.87,15.89 14.61,15.91 	"/>
	<rect x="4" y="9.53" style="fill:#26A69A;" width="5" height="32.83"/>
	<line style="fill:none;stroke:#26A69A;stroke-width:5;stroke-miterlimit:10;" x1="38.56" y1="41.78" x2="63.92" y2="9.53"/>
	<line style="fill:none;stroke:#26A69A;stroke-width:5;stroke-miterlimit:10;" x1="89.27" y1="41.78" x2="63.92" y2="9.53"/>
	<polygon style="fill:#00796B;" points="73.47,17.66 69.57,20.76 66.41,16.74 61.42,16.74 58.44,20.54 54.12,17.95 57.89,13.14 
		69.98,13.14 	"/>
	<line style="fill:none;stroke:#26A69A;stroke-width:5;stroke-miterlimit:10;" x1="63.92" y1="9.53" x2="63.92" y2="42.36"/>
	<line style="fill:none;stroke:#26A69A;stroke-width:5;stroke-miterlimit:10;" x1="96.1" y1="41.78" x2="121.45" y2="9.53"/>
	<polygon style="fill:#00796B;" points="119,16.69 116.09,20.38 111.79,17.78 113.28,15.89 119.29,15.91 	"/>
	<rect x="119" y="9.53" style="fill:#26A69A;" width="5" height="32.83"/>
	<rect x="4" y="39.21" style="fill:#80CBC4;" width="120" height="9.24"/>
	<rect x="4" y="3.92" style="fill:#26A69A;" width="120" height="12.11"/>
	<rect x="4" y="6.55" style="fill:#00796B;" width="120" height="2.03"/>
	<rect x="4" y="41.12" style="fill:#26A69A;" width="120" height="12.11"/>
	<rect x="4" y="43.75" style="fill:#00796B;" width="120" height="2.03"/>
</g>
<polygon style="fill:#00796B;" points="34.6,43.83 34.6,40 29.4,40 29.4,53.23 31.81,53.23 34.6,53.23 35.81,53.23 35.81,43.83 "/>
<polygon style="fill:#00796B;" points="106,44.76 106,40 100.8,40 100.8,53.23 103.21,53.23 106,53.23 107.2,53.23 107.2,44.76 "/>
<g>
	<circle style="fill:#455A64;" cx="18.57" cy="33.09" r="8.61"/>
	<circle style="fill:#455A64;" cx="38.01" cy="33.09" r="8.61"/>
	<circle style="fill:#607D8B;" cx="18.57" cy="33.09" r="6.09"/>
	<circle style="fill:#607D8B;" cx="38.01" cy="33.09" r="6.09"/>
	<path style="fill:#82AEC0;" d="M32,28.25h-7.07c-3.68,0-8.01,1.83-8.01,4.84c0,0.99,0.73,1.79,1.63,1.79c0.9,0,1.63-0.8,1.63-1.79
		c0-0.11-0.01-0.22-0.03-0.33c3.05-0.34,3.61,1.86,3.61,3.73v26.34h9.14V36.49c0-1.87,0.82-4.48,3.86-3.73
		c-0.02,0.11-0.03,0.21-0.03,0.33c0,0.99,0.73,1.79,1.63,1.79s1.63-0.8,1.63-1.79C40.01,30.08,35.69,28.25,32,28.25z"/>
	<path style="fill:#C9E3E6;" d="M20.17,32.76c0,0,2.07-1.1,3.68-0.48c1.6,0.63,1.88,1.79,1.88,3.95v22.49l-2,0
		c0,0,0.02-20.5,0.02-22.92C23.75,32.84,20.17,32.76,20.17,32.76z"/>
	<path style="fill:#455A64;" d="M36.79,32.76c0,0-2.07-1.1-3.68-0.48s-1.88,1.79-1.88,3.95v22.49l2,0c0,0-0.02-20.5-0.02-22.92
		C33.21,32.84,36.79,32.76,36.79,32.76z"/>
</g>
<path style="fill:#82AEC0;" d="M115,64.97L13,65.42l1.35-2.15c1.77-2.83,4.86-4.54,8.18-4.54h83.05c3.1,0,6.01,1.5,7.83,4.03
	L115,64.97z"/>
<g>
	<circle style="fill:#455A64;" cx="89.47" cy="33.09" r="8.61"/>
	<circle style="fill:#455A64;" cx="108.92" cy="33.09" r="8.61"/>
	<circle style="fill:#607D8B;" cx="89.47" cy="33.09" r="6.09"/>
	<circle style="fill:#607D8B;" cx="108.92" cy="33.09" r="6.09"/>
	<path style="fill:#82AEC0;" d="M102.91,28.25h-7.07c-3.68,0-8.01,1.83-8.01,4.84c0,0.99,0.73,1.79,1.63,1.79s1.63-0.8,1.63-1.79
		c0-0.11-0.01-0.22-0.03-0.33c3.05-0.34,3.61,1.86,3.61,3.73v26.34h9.14V36.49c0-1.87,0.82-4.48,3.86-3.73
		c-0.02,0.11-0.03,0.21-0.03,0.33c0,0.99,0.73,1.79,1.63,1.79s1.63-0.8,1.63-1.79C110.92,30.08,106.59,28.25,102.91,28.25z"/>
	<path style="fill:#C9E3E6;" d="M91.07,32.76c0,0,2.07-1.1,3.68-0.48c1.6,0.63,1.88,1.79,1.88,3.95v22.49l-2,0
		c0,0,0.02-20.5,0.02-22.92C94.65,32.84,91.07,32.76,91.07,32.76z"/>
	<path style="fill:#455A64;" d="M107.69,32.76c0,0-2.07-1.1-3.68-0.48c-1.6,0.63-1.88,1.79-1.88,3.95v22.49l2,0
		c0,0-0.02-20.5-0.02-22.92C104.11,32.84,107.69,32.76,107.69,32.76z"/>
</g>
<g>
	<path style="fill:#FFCA28;" d="M124,118.8H4V71.95c0-2.73,2.21-4.94,4.94-4.94h110.11c2.73,0,4.94,2.21,4.94,4.94V118.8z"/>
	<path style="fill:#78909C;" d="M118.38,67.33H11c-1.05,0-1.91-0.85-1.91-1.91v0c0-1.05,0.85-1.91,1.91-1.91h107.38
		c1.05,0,1.91,0.85,1.91,1.91v0C120.29,66.47,119.43,67.33,118.38,67.33z"/>
	<rect x="4.04" y="109.36" style="fill:#FFF59D;" width="119.85" height="3.3"/>
	<path style="fill:#9E740B;" d="M113.21,122.2c-6.76,0-94.25,0-101.45,0c-6.8,0-7.77-3.41-7.77-3.41h119.96
		C123.96,118.79,123.89,122.2,113.21,122.2z"/>
	<path style="fill:#E2A610;" d="M119.94,65.97H7.57C5.6,65.97,4,67.57,4,69.54v17.15h120V70.03C124,67.79,122.18,65.97,119.94,65.97
		z"/>
	<path style="fill:#FFCA28;stroke:#9E740B;stroke-width:2;stroke-miterlimit:10;" d="M94.64,119.85H79.9
		c-2.09,0-3.79-1.69-3.79-3.79V76.91c0-2.36,1.91-4.27,4.27-4.27h14.26c1.9,0,3.45,1.54,3.45,3.45v40.31
		C98.09,118.31,96.54,119.85,94.64,119.85z"/>
	<g>
		<path style="fill:#37474F;" d="M92.54,75.9H81.66c-1.47,0-2.66,1.19-2.66,2.66v21.93c0,1.47,1.19,2.66,2.66,2.66h10.88
			c1.47,0,2.66-1.19,2.66-2.66V78.56C95.19,77.09,94,75.9,92.54,75.9z"/>
		<g>
			<path style="fill:#BAE2FD;" d="M91.67,78.44h-8.86c-1.1,0-2,0.9-2,2v18.1c0,1.1,0.9,2,2,2h8.86c1.1,0,2-0.9,2-2v-18.1
				C93.67,79.34,92.78,78.44,91.67,78.44z"/>
		</g>
	</g>
	<g>
		<path style="fill:#37474F;" d="M117.72,75.9h-12.88c-1.47,0-2.66,1.19-2.66,2.66v14.93c0,1.47,1.19,2.66,2.66,2.66h12.88
			c1.47,0,2.66-1.19,2.66-2.66V78.56C120.38,77.09,119.19,75.9,117.72,75.9z"/>
		<g>
			<path style="fill:#BAE2FD;" d="M116.86,78.44H106c-1.1,0-2,0.9-2,2v11.1c0,1.1,0.9,2,2,2h10.86c1.1,0,2-0.9,2-2v-11.1
				C118.86,79.34,117.96,78.44,116.86,78.44z"/>
		</g>
	</g>
	<g>
		<path style="fill:#37474F;" d="M70.04,75.9H57.17c-1.47,0-2.66,1.19-2.66,2.66v14.93c0,1.47,1.19,2.66,2.66,2.66h12.88
			c1.47,0,2.66-1.19,2.66-2.66V78.56C72.7,77.09,71.51,75.9,70.04,75.9z"/>
		<g>
			<path style="fill:#BAE2FD;" d="M69.18,78.44H58.32c-1.1,0-2,0.9-2,2v11.1c0,1.1,0.9,2,2,2h10.86c1.1,0,2-0.9,2-2v-11.1
				C71.18,79.34,70.29,78.44,69.18,78.44z"/>
		</g>
	</g>
	<g>
		<path style="fill:#37474F;" d="M46.21,75.9H33.33c-1.47,0-2.66,1.19-2.66,2.66v14.93c0,1.47,1.19,2.66,2.66,2.66h12.88
			c1.47,0,2.66-1.19,2.66-2.66V78.56C48.86,77.09,47.67,75.9,46.21,75.9z"/>
		<g>
			<path style="fill:#BAE2FD;" d="M45.34,78.44H34.48c-1.1,0-2,0.9-2,2v11.1c0,1.1,0.9,2,2,2h10.86c1.1,0,2-0.9,2-2v-11.1
				C47.34,79.34,46.45,78.44,45.34,78.44z"/>
		</g>
	</g>
	<g>
		<path style="fill:#37474F;" d="M22.37,75.9H9.49c-1.47,0-2.66,1.19-2.66,2.66v14.93c0,1.47,1.19,2.66,2.66,2.66h12.88
			c1.47,0,2.66-1.19,2.66-2.66V78.56C25.02,77.09,23.83,75.9,22.37,75.9z"/>
		<g>
			<path style="fill:#BAE2FD;" d="M21.5,78.44H10.65c-1.1,0-2,0.9-2,2v11.1c0,1.1,0.9,2,2,2H21.5c1.1,0,2-0.9,2-2v-11.1
				C23.5,79.34,22.61,78.44,21.5,78.44z"/>
		</g>
	</g>
</g>
</svg>
